places/scalable/folder-cyan-vscode.svg

<?xml version="1.0" standalone="no"?><!-- Generator: Gravit.io -->
<svg xmlns="http://www.w3.org/2000/svg" 
  xmlns:xlink="http://www.w3.org/1999/xlink" style="isolation:isolate" viewBox="0 0 256 256" width="256" height="256">
  <g id="folder">
    <path d=" M 53.705469 21 C 17.390414 21 13.666667 23.055089 13.666667 59.371035 L 13.666667 111.538229 L 243.666667 111.538229 L 243.666667 79.563042 C 243.666667 43.247098 239.942918 37.460768 203.627861 37.460768 L 114.291921 37.460768 L 97.864201 21 L 53.705469 21 Z " id="orange" fill="#2B898F"/>
    <path d=" M 53.705469 70.384311 C 17.388415 70.384311 13.666667 74.113541 13.666667 110.429488 L 13.666667 194.952819 C 13.666667 231.268759 17.388415 235 53.705469 235 L 203.627861 235 C 239.944918 235 243.666667 231.268759 243.666667 194.952819 L 243.666667 93.968715 C 243.666667 57.652775 239.944918 53.921534 203.627861 53.921534 L 120.196686 53.921534 L 103.758968 70.384311 L 53.705469 70.384311 Z " id="change-color-easy" fill="#31C6B7"/>
    <linearGradient id="_lgradient_9" x1="0" y1="0.5" x2="2.83276944882399e-16" y2="-0.5" gradientTransform="matrix(230,0,0,181.078466,13.666667,53.921534)" gradientUnits="userSpaceOnUse">
      <stop offset="0%" stop-opacity="0.07" style="stop-color:rgb(255,255,255)"/>
      <stop offset="67.28219512106674%" stop-opacity="0" style="stop-color:rgb(252,239,232)"/>
    </linearGradient>
    <path d=" M 53.705469 70.384311 C 17.388415 70.384311 13.666667 74.113541 13.666667 110.429488 L 13.666667 194.952819 C 13.666667 231.268759 17.388415 235 53.705469 235 L 203.627861 235 C 239.944918 235 243.666667 231.268759 243.666667 194.952819 L 243.666667 93.968715 C 243.666667 57.652775 239.944918 53.921534 203.627861 53.921534 L 120.196686 53.921534 L 103.758968 70.384311 L 53.705469 70.384311 Z " id="gradient white" fill="url(#_lgradient_9)"/>
    <g opacity="0.4">
      <radialGradient id="_rgradient_18" fx="0.5000000213726793" fy="0.13577386516315215" cx="0.5" cy="0.5" r="0.27154159375000003" gradientTransform="matrix(230,0,0,60.620138,13.666667,21)" gradientUnits="userSpaceOnUse">
        <stop offset="0%" stop-opacity="1" style="stop-color:rgb(255,255,255)"/>
        <stop offset="100%" stop-opacity="0.20392157" style="stop-color:rgb(255,255,255)"/>
      </radialGradient>
      <path d=" M 53.705469 21 C 17.390414 21 13.666667 23.055089 13.666667 59.371035 L 13.666667 61.430128 C 13.666667 25.114188 17.390414 23.057095 53.705469 23.057095 L 97.864201 23.057095 L 114.291921 39.517861 L 203.627861 39.517861 C 239.942918 39.517861 243.666667 45.304195 243.666667 81.620138 L 243.666667 79.563042 C 243.666667 43.247098 239.942918 37.460768 203.627861 37.460768 L 114.291921 37.460768 L 97.864201 21 L 53.705469 21 Z " id="white" fill="url(#_rgradient_18)"/>
    </g>
    <g opacity="0.4">
      <radialGradient id="_rgradient_19" fx="0.48214287810452355" fy="0.2108154047287485" cx="0.5" cy="0.5" r="0.27154159375" gradientTransform="matrix(230,0,0,58.565044,13.666667,53.921534)" gradientUnits="userSpaceOnUse">
        <stop offset="0%" stop-opacity="1" style="stop-color:rgb(255,255,255)"/>
        <stop offset="100%" stop-opacity="0.20392157" style="stop-color:rgb(255,255,255)"/>
      </radialGradient>
      <path d=" M 120.196686 53.921534 L 103.758968 70.384311 L 53.705469 70.384311 C 17.390414 70.384311 13.666667 74.111537 13.666667 110.427484 L 13.666667 112.486577 C 13.666667 76.170637 17.390414 72.4414 53.705469 72.4414 L 103.758968 72.4414 L 120.196686 55.980634 L 203.627861 55.980634 C 239.942918 55.980634 243.666667 59.707868 243.666667 96.023808 L 243.666667 93.966711 C 243.666667 57.650771 239.942918 53.921534 203.627861 53.921534 L 120.196686 53.921534 Z " id="white" fill="url(#_rgradient_19)"/>
    </g>
    <g opacity="0.1">
      <path d=" M 243.666667 167.095832 L 177.951803 232.940899 L 203.627861 232.940899 C 239.942918 232.940899 243.666667 229.213666 243.666667 192.897726 L 243.666667 167.095832 Z " id="white" fill="rgb(255,255,255)"/>
    </g>
    <g opacity="0.2">
      <path d=" M 13.666667 192.897726 L 13.666667 194.954823 C 13.666667 231.270763 17.390414 235 53.705469 235 L 203.627861 235 C 239.942918 235 243.666667 231.270763 243.666667 194.954823 L 243.666667 192.897726 C 243.666667 229.213666 239.942918 232.940899 203.627861 232.940899 L 53.705469 232.940899 C 17.390414 232.940899 13.666667 229.213666 13.666667 192.897726 Z " id="dark" fill="rgb(0,0,0)"/>
    </g>
  </g>
  <g id="vcode">
    <g opacity="0.62">
      <path d=" M 157.990322 93.000292 L 157.990322 196.06339 L 68 182.697679 L 157.990322 212.999708 L 187.9904 200.520129 L 187.9904 107.340479 L 188 107.335979 L 187.9904 107.313499 L 187.9904 105.47815 L 157.990322 93.000292 Z " id="path951" fill="#FFFFFF"/>
    </g>
    <g opacity="0.62">
      <path d=" M 126.498353 110.558663 L 98.934881 137.804809 L 82.340187 125.307152 L 75.500927 127.591432 L 92.384079 144.280779 L 75.500927 160.969223 L 82.340187 163.254406 L 98.934881 150.755846 L 98.935781 150.755846 L 126.497453 178.00019 L 143.005605 170.986096 L 143.005605 117.572756 L 126.498353 110.558663 Z  M 126.497453 129.999163 L 126.497453 158.558792 L 107.534658 144.278979 L 126.497453 129.999163 Z " id="path887" fill="#FFFFFF"/>
    </g>
  </g>
</svg>

<svg xmlns="http://www.w3.org/2000/svg" style="isolation:isolate" width="256" height="256"><path d="M53.705 21c-36.315 0-40.038 2.055-40.038 38.371v52.167h230V79.563c0-36.316-3.724-42.102-40.04-42.102h-89.335L97.864 21H53.705z" fill="#2B898F"/><path d="M53.705 70.384c-36.317 0-40.038 3.73-40.038 40.045v84.524c0 36.316 3.721 40.047 40.038 40.047h149.923c36.317 0 40.039-3.731 40.039-40.047V93.969c0-36.316-3.722-40.047-40.04-40.047h-83.43l-16.438 16.462H53.705z" fill="#31C6B7"/><linearGradient id="a" y1=".5" x2="0" y2="-.5" gradientTransform="matrix(230 0 0 181.07847 13.667 53.922)" gradientUnits="userSpaceOnUse"><stop offset="0%" stop-opacity=".07" stop-color="#fff"/><stop offset="67.282%" stop-opacity="0" stop-color="#fcefe8"/></linearGradient><path d="M53.705 70.384c-36.317 0-40.038 3.73-40.038 40.045v84.524c0 36.316 3.721 40.047 40.038 40.047h149.923c36.317 0 40.039-3.731 40.039-40.047V93.969c0-36.316-3.722-40.047-40.04-40.047h-83.43l-16.438 16.462H53.705z" fill="url(#a)"/><g opacity=".4"><radialGradient id="b" fx=".5" fy=".136" cx=".5" cy=".5" r=".272" gradientTransform="matrix(230 0 0 60.62014 13.667 21)" gradientUnits="userSpaceOnUse"><stop offset="0%" stop-color="#fff"/><stop offset="100%" stop-opacity=".204" stop-color="#fff"/></radialGradient><path d="M53.705 21c-36.315 0-40.038 2.055-40.038 38.371v2.06c0-36.317 3.723-38.374 40.038-38.374h44.16l16.427 16.46h89.336c36.315 0 40.039 5.787 40.039 42.103v-2.057c0-36.316-3.724-42.102-40.04-42.102h-89.335L97.864 21H53.705z" fill="url(#b)"/></g><g opacity=".4"><radialGradient id="c" fx=".482" fy=".211" cx=".5" cy=".5" r=".272" gradientTransform="matrix(230 0 0 58.56504 13.667 53.922)" gradientUnits="userSpaceOnUse"><stop offset="0%" stop-color="#fff"/><stop offset="100%" stop-opacity=".204" stop-color="#fff"/></radialGradient><path d="M120.197 53.922l-16.438 16.462H53.705c-36.315 0-40.038 3.728-40.038 40.043v2.06c0-36.316 3.723-40.046 40.038-40.046h50.054l16.438-16.46h83.43c36.316 0 40.04 3.727 40.04 40.043v-2.057c0-36.316-3.724-40.045-40.04-40.045h-83.43z" fill="url(#c)"/></g><path d="M243.667 167.096l-65.715 65.845h25.676c36.315 0 40.039-3.727 40.039-40.043v-25.802z" fill="#FFF" opacity=".1"/><path d="M13.667 192.898v2.057C13.667 231.27 17.39 235 53.705 235h149.923c36.315 0 40.039-3.73 40.039-40.045v-2.057c0 36.316-3.724 40.043-40.04 40.043H53.706c-36.315 0-40.038-3.727-40.038-40.043z" opacity=".2"/><g><path d="M157.99 93v103.063L68 182.698 157.99 213l30-12.48v-93.18l.01-.004-.01-.023v-1.835L157.99 93z" fill="#FFF" opacity=".62"/><path d="M126.498 110.559l-27.563 27.246-16.595-12.498-6.84 2.284 16.884 16.69-16.883 16.688 6.84 2.285 16.594-12.498L126.498 178l16.509-7.014v-53.413l-16.508-7.014zm0 19.44v28.56l-18.963-14.28 18.962-14.28z" fill="#FFF" opacity=".62"/></g></svg>
